X: 593
T: Take Back the Virgin Page.
R:waltz
N:"Gracefully."
B:O'Neill's 593
Z:Transcribed by John B. Walsh
M:3/4
L:1/8
%Q:105
K:F
(c3 B A2)|(f3 e d2)|c2 (BAGF)|(A3 .G) .G2|
(c3 B .A2)|"after ~"(f3 g) a2|(F>G) A3F|G4||
(f3 ede)|(f3 F) F2|(f3 efg)|(a3 f) d2|
c2 {c}B2 A2|"after ~"(f3 g) a2|(F>G) A3 G|F4||


